icons/1_Primary/G2A.svg

<svg width="1024" height="1024" fill="none" xmlns="http://www.w3.org/2000/svg"><g clip-path="url(#a)"><path d="M512 1024c282.77 0 512-229.23 512-512S794.77 0 512 0 0 229.23 0 512s229.23 512 512 512Z" fill="#F8C18C"/><path d="M559.32 492.24h.46a16.894 16.894 0 0 0 16.43-17.36 17.168 17.168 0 0 0-17.3-16.47H419.54a40.617 40.617 0 0 1 40.62-40.61h101.71a57.55 57.55 0 0 1 0 115.09H476.4a17.579 17.579 0 0 0-17.58 17.58v16.29h131l-21.55 40.62h-152V546.4a54.15 54.15 0 0 1 54.15-54.15l88.9-.01ZM274.7 566.61a54.066 54.066 0 1 1 0-108.13l109.75-.08v-40.63l-112.34.08a94.69 94.69 0 1 0 0 189.38l112.34.09V492.24H262.59v40.62h79.35v33.84l-67.24-.09Zm461.57 29.19a11.53 11.53 0 0 1-11.52 11.53h-6.55a11.536 11.536 0 0 1-8.372-3.253 11.548 11.548 0 0 1-3.498-8.272 11.529 11.529 0 0 1 11.87-11.525h6.54a11.534 11.534 0 0 1 8.152 3.37 11.53 11.53 0 0 1 3.378 8.15Zm-11.76 6.71a6.71 6.71 0 0 0 0-13.42h-6.07a6.712 6.712 0 0 0-6.71 6.71 6.71 6.71 0 0 0 6.71 6.71h6.07Zm-45.72-6.71a11.533 11.533 0 0 1 11.53-11.52h13.17v4.82h-12.94a6.708 6.708 0 0 0 0 13.41h12.93v4.82h-13.17a11.53 11.53 0 0 1-11.53-11.52l.01-.01Zm89.36-11.53 8.54 23h-5.41l-6.3-17.7-5.61 15.43h-5.19l-5.61-15.43-6.3 17.7h-5.42l8.54-23h6.36l5 13.81 5-13.81h6.4Zm-98.45 19.9a3.151 3.151 0 1 0 3.15-3.15 3.144 3.144 0 0 0-3.16 3.16l.01-.01Zm88.8-164.55a46.88 46.88 0 0 0-13-15.78 36.314 36.314 0 0 0-22.11-7.17 34.59 34.59 0 0 0-21.53 7.17 46.856 46.856 0 0 0-13 15.78c-35.51 67.63-88.66 167.71-88.66 167.71h48.52l74.7-143.13 35.11 67.26h-54.12l19.06 36.39h54l20.6 39.47h48.51S794 507.26 758.5 439.62Z" fill="#fff"/></g><defs><clipPath id="a"><path fill="#fff" d="M0 0h1024v1024H0z"/></clipPath></defs></svg>

<svg width="1024" height="1024" viewBox="0 0 1024 1024" fill="none" xmlns="http://www.w3.org/2000/svg">
<g clip-path="url(#clip0_2_2250)">
<path d="M512 1024C794.77 1024 1024 794.77 1024 512C1024 229.23 794.77 0 512 0C229.23 0 0 229.23 0 512C0 794.77 229.23 1024 512 1024Z" fill="#F8C18C"/>
<path d="M559.32 492.24H559.78C561.999 492.179 564.184 491.682 566.21 490.776C568.237 489.871 570.065 488.575 571.591 486.963C573.116 485.351 574.31 483.454 575.102 481.381C575.895 479.308 576.271 477.099 576.21 474.88C576.028 470.426 574.122 466.217 570.893 463.144C567.665 460.07 563.367 458.372 558.91 458.41H419.54C419.543 447.638 423.823 437.309 431.441 429.694C439.058 422.078 449.389 417.8 460.16 417.8H561.87C577 417.999 591.444 424.15 602.073 434.92C612.702 445.69 618.661 460.213 618.661 475.345C618.661 490.477 612.702 505 602.073 515.77C591.444 526.54 577 532.69 561.87 532.89H476.4C471.737 532.89 467.266 534.742 463.969 538.039C460.672 541.336 458.82 545.807 458.82 550.47V566.76H589.82L568.27 607.38H416.27V546.4C416.27 532.038 421.975 518.265 432.13 508.11C442.285 497.955 456.058 492.25 470.42 492.25L559.32 492.24ZM274.7 566.61C260.361 566.61 246.609 560.914 236.47 550.775C226.331 540.635 220.635 526.884 220.635 512.545C220.635 498.206 226.331 484.454 236.47 474.315C246.609 464.176 260.361 458.48 274.7 458.48L384.45 458.4V417.77L272.11 417.85C246.997 417.85 222.912 427.826 205.154 445.584C187.396 463.342 177.42 487.426 177.42 512.54C177.42 537.653 187.396 561.738 205.154 579.496C222.912 597.254 246.997 607.23 272.11 607.23L384.45 607.32V492.24H262.59V532.86H341.94V566.7L274.7 566.61ZM736.27 595.8C736.27 598.856 735.057 601.787 732.896 603.949C730.736 606.111 727.806 607.327 724.75 607.33H718.2C716.658 607.375 715.122 607.111 713.684 606.552C712.246 605.993 710.935 605.152 709.828 604.077C708.722 603.002 707.842 601.716 707.241 600.295C706.64 598.875 706.33 597.348 706.33 595.805C706.33 594.262 706.64 592.735 707.241 591.314C707.842 589.893 708.722 588.607 709.828 587.533C710.935 586.458 712.246 585.616 713.684 585.058C715.122 584.499 716.658 584.234 718.2 584.28H724.74C726.254 584.279 727.753 584.576 729.152 585.154C730.55 585.732 731.821 586.581 732.892 587.65C733.963 588.72 734.812 589.991 735.392 591.389C735.972 592.787 736.27 594.286 736.27 595.8ZM724.51 602.51C726.29 602.51 727.996 601.803 729.255 600.544C730.513 599.286 731.22 597.579 731.22 595.8C731.22 594.02 730.513 592.313 729.255 591.055C727.996 589.797 726.29 589.09 724.51 589.09H718.44C716.66 589.09 714.954 589.797 713.695 591.055C712.437 592.313 711.73 594.02 711.73 595.8C711.73 597.579 712.437 599.286 713.695 600.544C714.954 601.803 716.66 602.51 718.44 602.51H724.51ZM678.79 595.8C678.793 592.744 680.009 589.813 682.171 587.653C684.333 585.493 687.264 584.28 690.32 584.28H703.49V589.1H690.55C688.816 589.167 687.176 589.902 685.974 591.153C684.771 592.403 684.099 594.07 684.099 595.805C684.099 597.54 684.771 599.207 685.974 600.457C687.176 601.707 688.816 602.443 690.55 602.51H703.48V607.33H690.31C687.254 607.33 684.323 606.116 682.161 603.956C679.999 601.796 678.783 598.866 678.78 595.81L678.79 595.8ZM768.15 584.27L776.69 607.27H771.28L764.98 589.57L759.37 605H754.18L748.57 589.57L742.27 607.27H736.85L745.39 584.27H751.75L756.75 598.08L761.75 584.27H768.15ZM669.7 604.17C669.7 604.793 669.885 605.402 670.231 605.92C670.577 606.438 671.069 606.842 671.644 607.08C672.22 607.318 672.853 607.381 673.464 607.259C674.076 607.138 674.637 606.838 675.077 606.397C675.518 605.957 675.818 605.395 675.939 604.784C676.061 604.173 675.999 603.54 675.76 602.964C675.522 602.389 675.118 601.897 674.6 601.551C674.082 601.204 673.473 601.02 672.85 601.02C672.435 601.018 672.023 601.099 671.639 601.258C671.255 601.416 670.906 601.649 670.613 601.942C670.319 602.236 670.086 602.585 669.928 602.969C669.769 603.353 669.689 603.764 669.69 604.18L669.7 604.17ZM758.5 439.62C755.38 433.467 750.941 428.079 745.5 423.84C739.114 419.092 731.346 416.573 723.39 416.67C715.611 416.571 708.026 419.097 701.86 423.84C696.418 428.079 691.979 433.467 688.86 439.62C653.35 507.25 600.2 607.33 600.2 607.33H648.72L723.42 464.2L758.53 531.46H704.41L723.47 567.85H777.47L798.07 607.32H846.58C846.58 607.32 794 507.26 758.5 439.62Z" fill="white"/>
</g>
<defs>
<clipPath id="clip0_2_2250">
<rect width="1024" height="1024" fill="white"/>
</clipPath>
</defs>
</svg>
